svg/SJJB-OpenStreetMapIcons/sport/swimming_outdoor.svg

<?xml version="1.0" encoding="UTF-8" standalone="no"?>
<!-- Created with Inkscape (http://www.inkscape.org/) -->

<svg
   xmlns:i="http://ns.adobe.com/AdobeIllustrator/10.0/"
   xmlns:dc="http://purl.org/dc/elements/1.1/"
   xmlns:cc="http://creativecommons.org/ns#"
   xmlns:rdf="http://www.w3.org/1999/02/22-rdf-syntax-ns#"
   xmlns:svg="http://www.w3.org/2000/svg"
   xmlns="http://www.w3.org/2000/svg"
   xmlns:sodipodi="http://sodipodi.sourceforge.net/DTD/sodipodi-0.dtd"
   xmlns:inkscape="http://www.inkscape.org/namespaces/inkscape"
   version="1.0"
   width="580"
   height="580"
   id="svg2"
   sodipodi:version="0.32"
   inkscape:version="0.48.0 r9654"
   sodipodi:docname="sport_swimming_outdoor.svg"
   inkscape:output_extension="org.inkscape.output.svg.inkscape">
  <metadata
     id="metadata1976">
    <rdf:RDF>
      <cc:Work
         rdf:about="">
        <dc:format>image/svg+xml</dc:format>
        <dc:type
           rdf:resource="http://purl.org/dc/dcmitype/StillImage" />
        <cc:license
           rdf:resource="http://web.resource.org/cc/PublicDomain" />
        <dc:language>en</dc:language>
      </cc:Work>
    </rdf:RDF>
  </metadata>
  <sodipodi:namedview
     inkscape:window-height="1002"
     inkscape:window-width="1280"
     inkscape:pageshadow="2"
     inkscape:pageopacity="0.0"
     guidetolerance="10.0"
     gridtolerance="10.0"
     objecttolerance="10.0"
     borderopacity="1.0"
     bordercolor="#666666"
     pagecolor="#ffffff"
     id="base"
     inkscape:zoom="0.32586207"
     inkscape:cx="707.83076"
     inkscape:cy="565.18449"
     inkscape:window-x="638"
     inkscape:window-y="24"
     inkscape:current-layer="svg2"
     showgrid="false"
     inkscape:window-maximized="0" />
  <defs
     id="defs4">
    <inkscape:perspective
       sodipodi:type="inkscape:persp3d"
       inkscape:vp_x="0 : 290 : 1"
       inkscape:vp_y="0 : 1000 : 0"
       inkscape:vp_z="580 : 290 : 1"
       inkscape:persp3d-origin="290 : 193.33333 : 1"
       id="perspective3653" />
  </defs>
  <g
     id="g1327">
    <path
       d="M 66.275,1.768 C 24.94,1.768 1.704,23.139 1.704,66.804 L 1.704,516.927 C 1.704,557.771 22.6,579.156 63.896,579.156 L 515.92,579.156 C 557.227,579.156 578.149,558.842 578.149,516.927 L 578.149,66.804 C 578.149,24.203 557.227,1.768 514.628,1.768 C 514.624,1.768 66.133,1.625 66.275,1.768 z "
       style="fill:#111;stroke:#eee;stroke-width:3.40799999"
       id="path1329" />
  </g>
  <path
     clip-rule="evenodd"
     d="M 520.67002,338.45757 C 516.5973,339.70107 511.33749,339.46262 504.43807,337.98711 C 497.42585,336.39109 491.03409,328.95069 479.38379,329.36219 C 467.45018,329.77627 450.59521,340.46638 434.30939,340.46638 C 417.79285,340.11513 399.24314,328.88917 382.38944,328.88917 C 365.59215,329.00838 350.32165,340.64201 334.2038,340.99711 C 317.80261,341.0548 301.45785,330.13135 285.3964,329.89548 C 269.10803,329.4827 253.66832,339.58312 238.45423,339.46262 C 223.46703,339.16906 210.17586,328.41739 195.30147,328.88917 C 180.03097,329.4827 163.29009,341.29323 148.35931,342.00216 C 133.31571,342.23931 119.68482,331.01847 106.39492,330.89795 C 92.9922,330.66208 77.947335,339.10752 68.898104,340.99839 C 59.848858,342.71363 54.136528,342.89054 51.987986,341.5304 L 51.987986,372.83415 C 54.136528,374.19172 59.848858,374.0161 68.898104,372.30214 C 77.947335,370.41129 92.990929,361.96583 106.39492,362.20172 C 119.6861,362.32093 133.31571,373.54178 148.35931,373.30335 C 163.29009,372.71492 180.03097,360.60571 195.30147,360.19163 C 210.17586,359.60193 223.46575,370.5869 238.45423,370.82279 C 253.66832,370.94329 269.10803,360.90312 285.3964,361.19797 C 301.45785,361.43256 317.80261,372.35726 334.2038,372.30086 C 350.32165,371.94576 365.59215,360.30957 382.38944,360.19163 C 399.24314,360.13522 417.79285,371.53298 434.30939,371.8304 C 450.59521,371.8304 467.45147,361.13643 479.38379,360.72493 C 491.03409,360.19163 497.42585,367.75253 504.43807,369.2883 C 511.33749,370.76509 516.5973,371.00096 520.67002,369.76005 L 520.67002,338.45757 z"
     i:knockout="Off"
     id="path113"
     style="fill:#ffffff;fill-opacity:1;fill-rule:evenodd" />
  <path
     clip-rule="evenodd"
     d="M 252.64917,321.80515 L 382.04844,252.76229 C 371.87111,230.43599 364.6871,213.60535 360.50156,201.61535 C 356.20192,189.6843 354.39311,187.02684 356.82496,181.35681 C 359.3132,175.50986 355.8635,174.62405 374.8106,166.88752 C 393.75516,158.85486 450.42471,135.82093 468.91801,134.69923 C 487.01648,133.75443 486.28192,153.71684 483.28473,160.45089 C 480.00296,167.00547 463.14926,168.65917 450.36829,173.85744 C 437.41554,178.81855 423.1642,184.36937 406.70661,190.51244 L 465.91955,320.80137 C 458.28559,327.35596 448.1608,329.89804 434.47478,328.89173 C 420.56185,327.53671 402.01085,314.30708 384.70593,314.24426 C 367.45609,314.30708 347.77443,329.07119 331.99629,329.36475 C 316.16045,329.3045 303.60511,316.54919 290.37033,315.25187 C 277.08171,313.94812 264.58277,316.13255 252.64917,321.80515 z"
     i:knockout="Off"
     id="path115"
     style="fill:#ffffff;fill-opacity:1;fill-rule:evenodd" />
  <path
     clip-rule="evenodd"
     d="M 485.13331,209.06343 C 505.08288,209.06343 521.27127,225.96969 521.27127,246.80254 C 521.27127,267.63539 505.08162,284.54164 485.13331,284.54164 C 465.185,284.54164 448.99406,267.63539 448.99406,246.80254 C 448.99406,225.96969 465.18371,209.06343 485.13331,209.06343"
     i:knockout="Off"
     id="path117"
     style="fill:#ffffff;fill-opacity:1;fill-rule:evenodd" />
  <path
     clip-rule="evenodd"
     d="M 165.32709,324.34338 C 150.00019,321.50773 134.39126,317.14144 117.42475,311.23041 C 100.34415,304.97325 71.218417,296.58422 64.317713,288.37466 C 57.418297,279.92922 62.451206,263.03834 76.365405,262.27045 C 90.333465,261.50258 118.0465,273.90537 146.83379,284.1827 C 175.45059,294.34337 208.19654,307.04101 246.82531,322.92813 C 242.07444,325.52663 235.79674,326.35348 227.76539,325.17152 C 219.62119,323.81138 209.3285,316.31074 198.86527,316.07614 C 188.34565,315.89795 177.3171,318.73361 165.32709,324.34338 z"
     i:knockout="Off"
     id="path119"
     style="fill:#ffffff;fill-opacity:1;fill-rule:evenodd" />
  <path
     clip-rule="evenodd"
     d="M 520.67002,390.848 C 516.5973,391.96842 511.33749,391.7928 504.43807,390.316 C 497.42585,388.78151 491.03409,381.21806 479.38379,381.75007 C 467.45018,382.16285 450.59521,392.85296 434.30939,392.85296 C 417.79285,392.50042 399.24314,381.27831 382.38944,381.27831 C 365.59215,381.39753 350.32165,393.03245 334.2038,393.38497 C 317.80261,393.44522 301.45785,382.51923 285.3964,382.28207 C 269.10803,381.86799 253.66832,391.96842 238.45423,391.85049 C 223.46703,391.55564 210.17586,380.80527 195.30147,381.27831 C 180.03097,381.86799 163.29009,393.67982 148.35931,394.39131 C 133.31571,394.6259 119.68482,383.40377 106.39492,383.28583 C 92.9922,383.05123 77.947335,391.49539 68.898104,393.38626 C 59.848858,395.21943 54.136528,395.15791 51.987986,393.8593 L 51.987986,425.16176 C 54.136528,426.46036 59.848858,426.5219 68.898104,424.68873 C 77.947335,422.79658 92.990929,414.35371 106.39492,414.58831 C 119.6861,414.70624 133.31571,425.92836 148.35931,425.69376 C 163.29009,424.98229 180.03097,413.17047 195.30147,412.58078 C 210.17586,412.10775 223.46575,422.85811 238.45423,423.15296 C 253.66832,423.2709 269.10803,413.17047 285.3964,413.58453 C 301.45785,413.8217 317.80261,424.7477 334.2038,424.68745 C 350.32165,424.3349 365.59215,412.69616 382.38944,412.58078 C 399.24314,412.58078 417.79285,423.8029 434.30939,424.15544 C 450.59521,424.15544 467.45147,413.46532 479.38379,413.05252 C 491.03409,412.63846 497.42585,420.07885 504.43807,421.67615 C 511.33749,423.15296 516.5973,423.39011 520.67002,422.15049 L 520.67002,390.848 z"
     i:knockout="Off"
     id="path121"
     style="fill:#ffffff;fill-opacity:1;fill-rule:evenodd" />
  <path
     clip-rule="evenodd"
     d="M 518.98652,442.22225 C 514.9138,443.34267 509.65399,443.16705 502.75457,441.69025 C 495.74235,440.15576 489.35059,432.59231 477.70029,433.12432 C 465.76668,433.5371 448.91171,444.22721 432.62589,444.22721 C 416.10935,443.87467 397.55964,432.65256 380.70594,432.65256 C 363.90865,432.77178 348.63815,444.4067 332.5203,444.75922 C 316.11911,444.81947 299.77435,433.89348 283.7129,433.65632 C 267.42453,433.24224 251.98482,443.34267 236.77073,443.22474 C 221.78353,442.92989 208.49236,432.17952 193.61797,432.65256 C 178.34747,433.24224 161.60659,445.05407 146.67581,445.76556 C 131.63221,446.00015 118.00132,434.77802 104.71142,434.66008 C 91.3087,434.42548 76.26383,442.86964 67.2146,444.76051 C 58.16536,446.59368 52.45303,446.53216 50.30448,445.23355 L 50.30448,476.53601 C 52.45303,477.83461 58.16536,477.89615 67.2146,476.06298 C 76.26383,474.17083 91.30743,465.72796 104.71142,465.96256 C 118.0026,466.08049 131.63221,477.30261 146.67581,477.06801 C 161.60659,476.35654 178.34747,464.54472 193.61797,463.95503 C 208.49236,463.482 221.78225,474.23236 236.77073,474.52721 C 251.98482,474.64515 267.42453,464.54472 283.7129,464.95878 C 299.77435,465.19595 316.11911,476.12195 332.5203,476.0617 C 348.63815,475.70915 363.90865,464.07041 380.70594,463.95503 C 397.55964,463.95503 416.10935,475.17715 432.62589,475.52969 C 448.91171,475.52969 465.76797,464.83957 477.70029,464.42677 C 489.35059,464.01271 495.74235,471.4531 502.75457,473.0504 C 509.65399,474.52721 514.9138,474.76436 518.98652,473.52474 L 518.98652,442.22225 z"
     i:knockout="Off"
     id="path4736"
     style="fill:#ffffff;fill-opacity:1;fill-rule:evenodd" />
</svg>

<svg xmlns="http://www.w3.org/2000/svg" viewBox="0 0 580 580"><path d="m66.28 1.768c-41.34 0-64.57 21.371-64.57 65.04v450.12c0 40.844 20.896 62.23 62.19 62.23h452.02c41.31 0 62.23-20.314 62.23-62.23v-450.12c0-42.601-20.922-65.04-63.52-65.04-.004 0-448.5-.143-448.35 0z" fill="#111" stroke="#eee" stroke-width="3.408"/><g fill="#fff" fill-rule="evenodd"><path d="m520.67 338.46c-4.073 1.244-9.333 1.01-16.232-.47-7.01-1.596-13.404-9.04-25.05-8.625-11.934.414-28.789 11.1-45.07 11.1-16.517-.351-35.07-11.577-51.92-11.577-16.797.119-32.07 11.753-48.19 12.11-16.401.058-32.746-10.866-48.807-11.1-16.288-.413-31.728 9.688-46.942 9.567-14.987-.294-28.28-11.05-43.15-10.573-15.27.594-32.01 12.404-46.942 13.11-15.04.237-28.674-10.984-41.964-11.1-13.403-.236-28.448 8.21-37.497 10.1-9.05 1.715-14.762 1.892-16.91.532v31.3c2.149 1.358 7.861 1.182 16.91-.532 9.05-1.891 24.09-10.336 37.497-10.1 13.291.119 26.921 11.34 41.964 11.1 14.931-.588 31.672-12.698 46.942-13.11 14.874-.59 28.16 10.395 43.15 10.631 15.214.12 30.654-9.92 46.942-9.625 16.06.235 32.406 11.159 48.807 11.1 16.12-.355 31.388-11.991 48.19-12.11 16.854-.056 35.403 11.341 51.92 11.639 16.286 0 33.14-10.694 45.07-11.11 11.65-.533 18.04 7.03 25.05 8.563 6.899 1.477 12.159 1.713 16.232.472v-31.3"/><path d="m252.65 321.81l129.4-69.04c-10.177-22.326-17.361-39.16-21.547-51.15-4.3-11.931-6.108-14.589-3.677-20.259 2.488-5.847-.961-6.733 17.986-14.469 18.945-8.03 75.61-31.07 94.11-32.19 18.1-.945 17.364 19.02 14.367 25.752-3.282 6.555-20.14 8.208-32.916 13.407-12.953 4.961-27.2 10.512-43.662 16.655l59.21 130.29c-7.634 6.555-17.759 9.1-31.445 8.09-13.913-1.355-32.464-14.585-49.769-14.647-17.25.063-36.932 14.827-52.71 15.12-15.836-.06-28.391-12.816-41.626-14.11-13.289-1.304-25.788.881-37.721 6.553"/><path d="m485.13 209.06c19.95 0 36.14 16.906 36.14 37.739 0 20.833-16.19 37.739-36.14 37.739-19.948 0-36.14-16.906-36.14-37.739 0-20.833 16.19-37.739 36.14-37.739"/><path d="m165.33 324.34c-15.327-2.836-30.936-7.202-47.902-13.11-17.08-6.257-46.21-14.646-53.11-22.856-6.899-8.445-1.867-25.336 12.05-26.1 13.968-.768 41.681 11.635 70.47 21.912 28.617 10.161 61.36 22.858 99.99 38.745-4.751 2.599-11.03 3.425-19.06 2.243-8.144-1.36-18.437-8.861-28.9-9.1-10.52-.178-21.548 2.657-33.538 8.267"/><path d="m520.67 390.85c-4.073 1.12-9.333.945-16.232-.532-7.01-1.534-13.404-9.1-25.05-8.566-11.934.413-28.789 11.1-45.07 11.1-16.517-.353-35.07-11.575-51.92-11.575-16.797.119-32.07 11.754-48.19 12.11-16.401.06-32.746-10.866-48.807-11.1-16.288-.414-31.728 9.686-46.942 9.568-14.987-.295-28.28-11.05-43.15-10.572-15.27.59-32.01 12.402-46.942 13.11-15.04.235-28.674-10.988-41.964-11.11-13.403-.235-28.448 8.21-37.497 10.1-9.05 1.833-14.762 1.772-16.91.473v31.3c2.149 1.299 7.861 1.36 16.91-.473 9.05-1.892 24.09-10.335 37.497-10.1 13.291.118 26.921 11.34 41.964 11.11 14.931-.711 31.672-12.523 46.942-13.11 14.874-.473 28.16 10.277 43.15 10.572 15.214.118 30.654-9.982 46.942-9.568 16.06.237 32.406 11.163 48.807 11.1 16.12-.353 31.388-11.991 48.19-12.11 16.854 0 35.403 11.222 51.92 11.575 16.286 0 33.14-10.69 45.07-11.1 11.65-.414 18.04 7.03 25.05 8.624 6.899 1.477 12.159 1.714 16.232.474v-31.3"/><path d="m518.99 442.22c-4.073 1.12-9.333.945-16.232-.532-7.01-1.534-13.404-9.1-25.05-8.566-11.934.413-28.789 11.1-45.07 11.1-16.517-.353-35.07-11.575-51.92-11.575-16.797.119-32.07 11.754-48.19 12.11-16.401.06-32.746-10.866-48.807-11.1-16.288-.414-31.728 9.686-46.942 9.568-14.987-.295-28.28-11.05-43.15-10.572-15.271.59-32.01 12.402-46.942 13.11-15.04.235-28.674-10.988-41.964-11.11-13.403-.235-28.448 8.21-37.497 10.1-9.05 1.833-14.762 1.772-16.91.473v31.3c2.149 1.299 7.861 1.36 16.91-.473 9.05-1.892 24.09-10.335 37.497-10.1 13.291.118 26.921 11.34 41.964 11.11 14.931-.711 31.672-12.523 46.942-13.11 14.874-.473 28.16 10.277 43.15 10.572 15.214.118 30.654-9.982 46.942-9.568 16.06.237 32.406 11.163 48.807 11.1 16.12-.353 31.388-11.991 48.19-12.11 16.854 0 35.403 11.222 51.92 11.575 16.286 0 33.14-10.69 45.07-11.1 11.65-.414 18.04 7.03 25.05 8.624 6.899 1.477 12.159 1.714 16.232.474v-31.3"/></g></svg>
